assets/img/error.svg

<?xml version="1.0" encoding="UTF-8"?>
<svg width="22px" height="22px" viewBox="0 0 22 22" version="1.1" xmlns="http://www.w3.org/2000/svg" xmlns:xlink="http://www.w3.org/1999/xlink">
    <!-- Generator: Sketch 50.2 (55047) - http://www.bohemiancoding.com/sketch -->
    <title>Group</title>
    <desc>Created with Sketch.</desc>
    <defs></defs>
    <g id="Page-1" stroke="none" stroke-width="1" fill="none" fill-rule="evenodd">
        <g id="Quizz-réponse" transform="translate(-48.000000, -295.000000)" fill="#18165C">
            <g id="cross" transform="translate(48.000000, 294.000000)">
                <g id="Group" transform="translate(0.000000, 0.695782)">
                    <path d="M10.9090909,0.394145455 C4.89060807,0.394145455 -2.53090909e-05,5.2848 0,11.3032364 C3.80727273e-05,17.3216727 4.89065269,22.2123273 10.9090909,22.2123273 C16.9275295,22.2123273 21.8181436,17.3216727 21.8181818,11.3032364 C21.8182069,5.2848 16.9275742,0.394145455 10.9090909,0.394145455 Z M10.9090909,1.48505455 C16.3380709,1.48505455 20.7272956,5.87432727 20.7272727,11.3032364 C20.7272389,16.7322545 16.3380305,21.1214182 10.9090909,21.1214182 C5.48015127,21.1214182 1.09094345,16.7322545 1.09090909,11.3032364 C1.09088629,5.87432727 5.4801108,1.48505455 10.9090909,1.48505455 Z" id="Shape" fill-rule="nonzero"></path>
                    <polygon id="Shape" points="14.9701702 6.47083636 6.10653404 15.3344727 6.87784091 16.1058545 15.7414778 7.24221818"></polygon>
                    <polygon id="Shape" points="6.83096596 6.39207273 6.05965909 7.16334545 14.9872156 16.0909091 15.7585222 15.3196364"></polygon>
                </g>
            </g>
        </g>
    </g>
</svg>

<svg width="22" height="22" viewBox="0 0 22 22" xmlns="http://www.w3.org/2000/svg"><title>Group</title><g transform="translate(0 -.304)" fill="#18165C" fill-rule="evenodd"><path d="M10.91.394C4.89.394 0 5.284 0 11.304c0 6.018 4.89 10.908 10.91 10.908 6.018 0 10.908-4.89 10.908-10.909 0-6.018-4.89-10.909-10.909-10.909zm0 1.091a9.81 9.81 0 0 1 9.817 9.818 9.81 9.81 0 0 1-9.818 9.818 9.81 9.81 0 0 1-9.818-9.818 9.81 9.81 0 0 1 9.818-9.818z" fill-rule="nonzero"/><path d="M14.9701702 6.47083636L6.10653404 15.3344727 6.87784091 16.1058545 15.7414778 7.24221818z"/><path d="M6.83096596 6.39207273L6.05965909 7.16334545 14.9872156 16.0909091 15.7585222 15.3196364z"/></g></svg>
